X:SSF 13-19 139
T:Petronella
O:Scotland?
B:Kerr, First Collection of Merry Melodies, 1870s
M:4/4
K:D
P:A
dA|F2AF E2AF D2D2 D2FA |1,3 d2cd e2d2 dcB2 A2 :|2,4 d2d2 e2dc d4 d2 :|
P:B
dA|F2fd A2af g2ga gfed |1,3 cdec A2a2 f2fg fe :| cdec A2dc d4 d2 :|

% Into...

